X:3
T: Browned Bread
M:4/4
L:1/4
K:D
Q:1/4 = 225
|"Dmaj"fefg|"Amaj"f2 e2|"Bm"edef|"Amaj"e2d2|
|"Gmaj"dcBF|"F#m"Aade|"Em7"fz3|"A7"z4|
|"Dmaj"fefg|"Amaj"f2 e2|"Bm"edef|"Amaj"e2d2|
|"Gmaj"dcBF|"F#m"A2"F#sus4"c2|"Dmaj"d4|z4|